X: 33
T:Balance the Straw, Bledington
M:4/4
L:1/8
A:Bledington
P:AAB(CB)2
K:G
P:A
|:DG|B2B2 BdcB|c2A2 A2Bc|d2B2 c2Ac|B2G2 G2:|
P:B
gf|e2d2 d2G2|B2B2 B2gf|e2d2 d2G2|GGFE D2DG|
B2B2 BdcB|c2A2 A2Bc|d2B2 c2Ac|B2G2 G2||
P:C
|:z2|D2G2 B4|B4 B2d2|\
c2B2 c4|A4 A2Bc|d2B2 c2Ac|B2G2 G2:|
